svg/business/calendar_2_fill.svg

<?xml version="1.0" encoding="UTF-8"?>
<svg width="24px" height="24px" viewBox="0 0 24 24" version="1.1" xmlns="http://www.w3.org/2000/svg" xmlns:xlink="http://www.w3.org/1999/xlink">
    <title>calendar_2_fill</title>
    <g id="Icon" stroke="none" stroke-width="1" fill="none" fill-rule="evenodd">
        <g id="Business" transform="translate(-48.000000, -528.000000)">
            <g id="calendar_2_fill" transform="translate(48.000000, 528.000000)">
                <path d="M24,0 L24,24 L0,24 L0,0 L24,0 Z M12.5935,23.2578 L12.5819,23.2595 L12.5109,23.295 L12.4919,23.2987 L12.4767,23.295 L12.4057,23.2595 C12.3958,23.2564 12.387,23.259 12.3821,23.2649 L12.378,23.2758 L12.3609,23.7031 L12.3659,23.7235 L12.3769,23.7357 L12.4805,23.8097 L12.4953,23.8136 L12.5071,23.8097 L12.6107,23.7357 L12.6233,23.7197 L12.6267,23.7031 L12.6096,23.2758 C12.6076,23.2657 12.601,23.2593 12.5935,23.2578 Z M12.8584,23.1453 L12.8445,23.1473 L12.6598,23.2397 L12.6499,23.2499 L12.6472,23.2611 L12.6651,23.6906 L12.6699,23.7034 L12.6784,23.7105 L12.8793,23.8032 C12.8914,23.8069 12.9022,23.803 12.9078,23.7952 L12.9118,23.7812 L12.8777,23.1665 C12.8753,23.1546 12.8674,23.147 12.8584,23.1453 Z M12.143,23.1473 C12.1332,23.1424 12.1222,23.1453 12.1156,23.1526 L12.1099,23.1665 L12.0758,23.7812 C12.0751,23.7927 12.0828,23.8019 12.0926,23.8046 L12.1083,23.8032 L12.3092,23.7105 L12.3186,23.7024 L12.3225,23.6906 L12.3404,23.2611 L12.3372,23.2485 L12.3278,23.2397 L12.143,23.1473 Z" id="MingCute" fill-rule="nonzero"></path>
                <path d="M16,3 C16.5523,3 17,3.44772 17,4 L17,5 L19,5 C20.1046,5 21,5.89543 21,7 L21,19 C21,20.1046 20.1046,21 19,21 L5,21 C3.89543,21 3,20.1046 3,19 L3,7 C3,5.89543 3.89543,5 5,5 L7,5 L7,4 C7,3.44772 7.44772,3 8,3 C8.55228,3 9,3.44772 9,4 L9,5 L15,5 L15,4 C15,3.44772 15.4477,3 16,3 Z M8.01,16 L8,16 C7.44772,16 7,16.4477 7,17 C7,17.51285 7.38604429,17.9355092 7.88337975,17.9932725 L8.01,18 C8.56228,18 9.01,17.5523 9.01,17 C9.01,16.4477 8.56228,16 8.01,16 Z M12.01,16 L12,16 C11.4477,16 11,16.4477 11,17 C11,17.51285 11.386027,17.9355092 11.8833761,17.9932725 L12.01,18 C12.5623,18 13.01,17.5523 13.01,17 C13.01,16.4477 12.5623,16 12.01,16 Z M16.01,16 L16,16 C15.4477,16 15,16.4477 15,17 C15,17.51285 15.386027,17.9355092 15.8833761,17.9932725 L16.01,18 C16.5623,18 17.01,17.5523 17.01,17 C17.01,16.4477 16.5623,16 16.01,16 Z M8.01,12 L8,12 C7.44772,12 7,12.4477 7,13 C7,13.51285 7.38604429,13.9355092 7.88337975,13.9932725 L8.01,14 C8.56228,14 9.01,13.5523 9.01,13 C9.01,12.4477 8.56228,12 8.01,12 Z M12.01,12 L12,12 C11.4477,12 11,12.4477 11,13 C11,13.51285 11.386027,13.9355092 11.8833761,13.9932725 L12.01,14 C12.5623,14 13.01,13.5523 13.01,13 C13.01,12.4477 12.5623,12 12.01,12 Z M16.01,12 L16,12 C15.4477,12 15,12.4477 15,13 C15,13.51285 15.386027,13.9355092 15.8833761,13.9932725 L16.01,14 C16.5623,14 17.01,13.5523 17.01,13 C17.01,12.4477 16.5623,12 16.01,12 Z M19,7 L5,7 L5,9 L19,9 L19,7 Z" id="形状" fill="#09244B"></path>
            </g>
        </g>
    </g>
</svg>

<svg xmlns="http://www.w3.org/2000/svg" width="24" height="24"><g fill="none" fill-rule="evenodd"><path d="M24 0v24H0V0zM12.594 23.258l-.012.002-.071.035-.02.004-.014-.004-.071-.036c-.01-.003-.019 0-.024.006l-.004.01-.017.428.005.02.01.013.104.074.015.004.012-.004.104-.074.012-.016.004-.017-.017-.427c-.002-.01-.009-.017-.016-.018m.264-.113-.014.002-.184.093-.01.01-.003.011.018.43.005.012.008.008.201.092c.012.004.023 0 .029-.008l.004-.014-.034-.614c-.003-.012-.01-.02-.02-.022m-.715.002a.023.023 0 0 0-.027.006l-.006.014-.034.614c0 .012.007.02.017.024l.015-.002.201-.093.01-.008.003-.011.018-.43-.003-.012-.01-.01z"/><path fill="#09244B" d="M16 3a1 1 0 0 1 1 1v1h2a2 2 0 0 1 2 2v12a2 2 0 0 1-2 2H5a2 2 0 0 1-2-2V7a2 2 0 0 1 2-2h2V4a1 1 0 0 1 2 0v1h6V4a1 1 0 0 1 1-1M8.01 16H8a1 1 0 0 0-.117 1.993L8.01 18a1 1 0 1 0 0-2m4 0H12a1 1 0 0 0-.117 1.993l.127.007a1 1 0 1 0 0-2m4 0H16a1 1 0 0 0-.117 1.993l.127.007a1 1 0 1 0 0-2m-8-4H8a1 1 0 0 0-.117 1.993L8.01 14a1 1 0 1 0 0-2m4 0H12a1 1 0 0 0-.117 1.993l.127.007a1 1 0 1 0 0-2m4 0H16a1 1 0 0 0-.117 1.993l.127.007a1 1 0 1 0 0-2M19 7H5v2h14z"/></g></svg>
